src/constants/images/landingIcons/new-logo-long.svg

<svg width="1109" height="235" viewBox="0 0 1109 235" fill="none" xmlns="http://www.w3.org/2000/svg">
<path d="M314.175 58.9641H367.087C379.733 58.9641 390.881 61.4045 400.531 66.2852C410.293 71.055 417.836 77.8215 423.16 86.5846C428.595 95.3478 431.313 105.553 431.313 117.2C431.313 128.847 428.595 139.053 423.16 147.816C417.836 156.579 410.293 163.401 400.531 168.281C390.881 173.051 379.733 175.436 367.087 175.436H314.175V58.9641ZM365.756 153.306C377.403 153.306 386.666 150.09 393.543 143.656C400.531 137.111 404.025 128.293 404.025 117.2C404.025 106.108 400.531 97.3444 393.543 90.9107C386.666 84.3661 377.403 81.0938 365.756 81.0938H341.13V153.306H365.756ZM537.498 131.01C537.498 131.343 537.331 133.673 536.999 137.999H469.278C470.499 143.545 473.383 147.927 477.931 151.143C482.479 154.36 488.136 155.969 494.902 155.969C499.561 155.969 503.665 155.303 507.215 153.972C510.876 152.53 514.259 150.311 517.365 147.316L531.175 162.291C522.745 171.942 510.432 176.767 494.237 176.767C484.142 176.767 475.213 174.826 467.448 170.944C459.683 166.95 453.693 161.46 449.478 154.471C445.263 147.483 443.155 139.552 443.155 130.678C443.155 121.914 445.207 114.039 449.312 107.05C453.527 99.9512 459.24 94.4603 466.45 90.5779C473.771 86.5846 481.924 84.588 490.909 84.588C499.672 84.588 507.603 86.4737 514.702 90.2452C521.802 94.0166 527.348 99.452 531.341 106.551C535.446 113.54 537.498 121.693 537.498 131.01ZM491.075 104.222C485.196 104.222 480.26 105.886 476.267 109.213C472.273 112.541 469.833 117.089 468.946 122.857H513.039C512.151 117.2 509.711 112.708 505.717 109.38C501.724 105.941 496.843 104.222 491.075 104.222ZM642.005 85.9191L604.235 175.436H577.447L539.843 85.9191H566.631L591.423 146.817L617.047 85.9191H642.005ZM737.847 131.01C737.847 131.343 737.68 133.673 737.347 137.999H669.627C670.847 143.545 673.732 147.927 678.279 151.143C682.827 154.36 688.485 155.969 695.251 155.969C699.91 155.969 704.014 155.303 707.564 153.972C711.224 152.53 714.608 150.311 717.714 147.316L731.524 162.291C723.094 171.942 710.781 176.767 694.586 176.767C684.491 176.767 675.562 174.826 667.797 170.944C660.032 166.95 654.042 161.46 649.827 154.471C645.612 147.483 643.504 139.552 643.504 130.678C643.504 121.914 645.556 114.039 649.661 107.05C653.876 99.9512 659.588 94.4603 666.799 90.5779C674.12 86.5846 682.273 84.588 691.258 84.588C700.021 84.588 707.952 86.4737 715.051 90.2452C722.151 94.0166 727.697 99.452 731.69 106.551C735.795 113.54 737.847 121.693 737.847 131.01ZM691.424 104.222C685.545 104.222 680.609 105.886 676.616 109.213C672.622 112.541 670.182 117.089 669.294 122.857H713.388C712.5 117.2 710.06 112.708 706.066 109.38C702.073 105.941 697.192 104.222 691.424 104.222ZM779.92 97.7327C783.026 93.4066 787.185 90.1342 792.399 87.9157C797.723 85.6972 803.824 84.588 810.701 84.588V108.548C807.817 108.326 805.876 108.215 804.878 108.215C797.446 108.215 791.622 110.323 787.407 114.538C783.192 118.642 781.084 124.854 781.084 133.173V175.436H755.128V85.9191H779.92V97.7327ZM856.577 176.767C849.145 176.767 841.879 175.88 834.78 174.105C827.681 172.219 822.023 169.89 817.808 167.117L826.46 148.481C830.454 151.033 835.279 153.14 840.936 154.804C846.593 156.357 852.14 157.133 857.575 157.133C868.557 157.133 874.048 154.416 874.048 148.98C874.048 146.429 872.55 144.599 869.555 143.49C866.56 142.38 861.957 141.437 855.745 140.661C848.424 139.552 842.378 138.276 837.608 136.834C832.839 135.392 828.679 132.841 825.129 129.18C821.691 125.52 819.971 120.306 819.971 113.54C819.971 107.882 821.58 102.891 824.796 98.5646C828.124 94.1276 832.894 90.6889 839.106 88.2485C845.429 85.8081 852.861 84.588 861.402 84.588C867.725 84.588 873.992 85.309 880.204 86.751C886.527 88.0821 891.74 89.9679 895.844 92.4082L887.192 110.877C879.316 106.44 870.72 104.222 861.402 104.222C855.856 104.222 851.696 104.998 848.923 106.551C846.15 108.104 844.763 110.101 844.763 112.541C844.763 115.314 846.261 117.256 849.256 118.365C852.251 119.474 857.02 120.528 863.565 121.526C870.886 122.746 876.876 124.078 881.535 125.52C886.194 126.851 890.243 129.347 893.681 133.007C897.12 136.668 898.839 141.77 898.839 148.315C898.839 153.861 897.176 158.797 893.848 163.123C890.52 167.45 885.639 170.833 879.206 173.273C872.883 175.603 865.34 176.767 856.577 176.767ZM914.854 85.9191H940.811V175.436H914.854V85.9191ZM927.833 73.4399C923.063 73.4399 919.18 72.0533 916.185 69.2802C913.19 66.507 911.693 63.0683 911.693 58.9641C911.693 54.8598 913.19 51.4211 916.185 48.648C919.18 45.8748 923.063 44.4883 927.833 44.4883C932.602 44.4883 936.485 45.8194 939.48 48.4816C942.475 51.1438 943.972 54.4716 943.972 58.4649C943.972 62.791 942.475 66.3961 939.48 69.2802C936.485 72.0533 932.602 73.4399 927.833 73.4399ZM993.686 80.5946V111.377H1047.6V133.007H993.686V175.436H966.731V58.9641H1054.75V80.5946H993.686ZM1069.54 85.9191H1095.5V175.436H1069.54V85.9191ZM1082.52 73.4399C1077.75 73.4399 1073.87 72.0533 1070.87 69.2802C1067.88 66.507 1066.38 63.0683 1066.38 58.9641C1066.38 54.8598 1067.88 51.4211 1070.87 48.648C1073.87 45.8748 1077.75 44.4883 1082.52 44.4883C1087.29 44.4883 1091.17 45.8194 1094.17 48.4816C1097.16 51.1438 1098.66 54.4716 1098.66 58.4649C1098.66 62.791 1097.16 66.3961 1094.17 69.2802C1091.17 72.0533 1087.29 73.4399 1082.52 73.4399Z" fill="white"/>
<path d="M53.6 148.4C48.2 143 48.2 134.3 53.6 128.9L108.1 74.4L86.4 52.7C81 47.3 72.3 47.3 66.9 52.7L4.20002 115.4C-1.19998 120.8 -1.19998 129.5 4.20002 134.9L70.4 201.1C75.8 206.5 84.5 206.5 89.9 201.1L98.1 192.9L53.6 148.4Z" fill="white"/>
<path d="M165.2 230.9L59.4 125C54 119.6 54 110.9 59.4 105.5L160.1 4.8C165.5 -0.6 174.2 -0.6 179.6 4.8L285.4 110.6C290.8 116 290.8 124.7 285.4 130.1L184.8 230.9C179.4 236.3 170.6 236.3 165.2 230.9Z" fill="white"/>
</svg>

<svg width="1109" height="235" fill="none" xmlns="http://www.w3.org/2000/svg"><path d="M314.175 58.964h52.912c12.646 0 23.794 2.44 33.444 7.321 9.762 4.77 17.305 11.537 22.629 20.3 5.435 8.763 8.153 18.968 8.153 30.615 0 11.647-2.718 21.853-8.153 30.616-5.324 8.763-12.867 15.585-22.629 20.465-9.65 4.77-20.798 7.155-33.444 7.155h-52.912V58.964zm51.581 94.342c11.647 0 20.91-3.216 27.787-9.65 6.988-6.545 10.482-15.363 10.482-26.456 0-11.092-3.494-19.856-10.482-26.29-6.877-6.544-16.14-9.816-27.787-9.816H341.13v72.212h24.626zm171.742-22.296c0 .333-.167 2.663-.499 6.989h-67.721c1.221 5.546 4.105 9.928 8.653 13.144 4.548 3.217 10.205 4.826 16.971 4.826 4.659 0 8.763-.666 12.313-1.997 3.661-1.442 7.044-3.661 10.15-6.656l13.81 14.975c-8.43 9.651-20.743 14.476-36.938 14.476-10.095 0-19.024-1.941-26.789-5.823-7.765-3.994-13.755-9.484-17.97-16.473-4.215-6.988-6.323-14.919-6.323-23.793 0-8.764 2.052-16.639 6.157-23.628 4.215-7.099 9.928-12.59 17.138-16.472 7.321-3.993 15.474-5.99 24.459-5.99 8.763 0 16.694 1.886 23.793 5.657 7.1 3.772 12.646 9.207 16.639 16.306 4.105 6.989 6.157 15.142 6.157 24.459zm-46.423-26.788c-5.879 0-10.815 1.664-14.808 4.991-3.994 3.328-6.434 7.876-7.321 13.644h44.093c-.888-5.657-3.328-10.149-7.322-13.477-3.993-3.439-8.874-5.158-14.642-5.158zm150.93-18.303l-37.77 89.517h-26.788l-37.604-89.517h26.788l24.792 60.898 25.624-60.898h24.958zm95.842 45.091c0 .333-.167 2.663-.5 6.989h-67.72c1.22 5.546 4.105 9.928 8.652 13.144 4.548 3.217 10.206 4.826 16.972 4.826 4.659 0 8.763-.666 12.313-1.997 3.66-1.442 7.044-3.661 10.15-6.656l13.81 14.975c-8.43 9.651-20.743 14.476-36.938 14.476-10.095 0-19.024-1.941-26.789-5.823-7.765-3.994-13.755-9.484-17.97-16.473-4.215-6.988-6.323-14.919-6.323-23.793 0-8.764 2.052-16.639 6.157-23.628 4.215-7.099 9.927-12.59 17.138-16.472 7.321-3.993 15.474-5.99 24.459-5.99 8.763 0 16.694 1.886 23.793 5.657 7.1 3.772 12.646 9.207 16.639 16.306 4.105 6.989 6.157 15.142 6.157 24.459zm-46.423-26.788c-5.879 0-10.815 1.664-14.808 4.991-3.994 3.328-6.434 7.876-7.322 13.644h44.094c-.888-5.657-3.328-10.149-7.322-13.477-3.993-3.439-8.874-5.158-14.642-5.158zm88.496-6.49c3.106-4.325 7.265-7.598 12.479-9.816 5.324-2.219 11.425-3.328 18.302-3.328v23.96c-2.884-.222-4.825-.333-5.823-.333-7.432 0-13.256 2.108-17.471 6.323-4.215 4.104-6.323 10.316-6.323 18.635v42.263h-25.956V85.919h24.792v11.814zm76.657 79.035c-7.432 0-14.698-.887-21.797-2.662-7.099-1.886-12.757-4.215-16.972-6.988l8.652-18.636c3.994 2.552 8.819 4.659 14.476 6.323 5.657 1.553 11.204 2.329 16.639 2.329 10.982 0 16.473-2.717 16.473-8.153 0-2.551-1.498-4.381-4.493-5.49-2.995-1.11-7.598-2.053-13.81-2.829-7.321-1.109-13.367-2.385-18.137-3.827-4.769-1.442-8.929-3.993-12.479-7.654-3.438-3.66-5.158-8.874-5.158-15.64 0-5.658 1.609-10.649 4.825-14.975 3.328-4.437 8.098-7.876 14.31-10.316 6.323-2.44 13.755-3.661 22.296-3.661 6.323 0 12.59.721 18.802 2.163 6.323 1.331 11.536 3.217 15.64 5.657l-8.652 18.469c-7.876-4.437-16.472-6.655-25.79-6.655-5.546 0-9.706.776-12.479 2.329-2.773 1.553-4.16 3.55-4.16 5.99 0 2.773 1.498 4.715 4.493 5.824s7.764 2.163 14.309 3.161c7.321 1.22 13.311 2.552 17.97 3.994 4.659 1.331 8.708 3.827 12.146 7.487 3.439 3.661 5.158 8.763 5.158 15.308 0 5.546-1.663 10.482-4.991 14.808-3.328 4.327-8.209 7.71-14.642 10.15-6.323 2.33-13.866 3.494-22.629 3.494zm58.277-90.848h25.957v89.517h-25.957V85.919zm12.979-12.48c-4.77 0-8.653-1.386-11.648-4.159-2.995-2.773-4.492-6.212-4.492-10.316 0-4.104 1.497-7.543 4.492-10.316 2.995-2.773 6.878-4.16 11.648-4.16 4.769 0 8.652 1.331 11.647 3.994 2.995 2.662 4.492 5.99 4.492 9.983 0 4.326-1.497 7.931-4.492 10.815-2.995 2.773-6.878 4.16-11.647 4.16zm65.853 7.156v30.782h53.914v21.63h-53.914v42.429h-26.955V58.964h88.019v21.63h-61.064zm75.854 5.324h25.96v89.517h-25.96V85.919zm12.98-12.48c-4.77 0-8.65-1.386-11.65-4.159-2.99-2.773-4.49-6.212-4.49-10.316 0-4.104 1.5-7.543 4.49-10.316 3-2.773 6.88-4.16 11.65-4.16 4.77 0 8.65 1.331 11.65 3.994 2.99 2.662 4.49 5.99 4.49 9.983 0 4.326-1.5 7.931-4.49 10.815-3 2.773-6.88 4.16-11.65 4.16zM53.6 148.4c-5.4-5.4-5.4-14.1 0-19.5l54.5-54.5-21.7-21.7c-5.4-5.4-14.1-5.4-19.5 0L4.2 115.4c-5.4 5.4-5.4 14.1 0 19.5l66.2 66.2c5.4 5.4 14.1 5.4 19.5 0l8.2-8.2-44.5-44.5z" fill="#fff"/><path d="M165.2 230.9L59.4 125c-5.4-5.4-5.4-14.1 0-19.5L160.1 4.8c5.4-5.4 14.1-5.4 19.5 0l105.8 105.8c5.4 5.4 5.4 14.1 0 19.5L184.8 230.9c-5.4 5.4-14.2 5.4-19.6 0z" fill="#fff"/></svg>
